X: 9415
T: Daniel Of The Sun
R: jig
M: 6/8
K: Fmajor
|:ABc GAB|AGA FDC|DGG GFG|DGG GFG|
ABc GAB|AGA FDC|DFF FDC|DFE F2 G:|
|:AFF GFF|AFF GFC|DGG GFG|DGG GFG|
AFF GFF|AFF GFC|DFF FDC|DFE F2 G:|

